;FLAVOR:Marlin
;TIME:1513
;Filament used: 1.05125m
;Layer height: 0.2
;MINX:83.6
;MINY:90.6
;MINZ:0.3
;MAXX:126.4
;MAXY:119.4
;MAXZ:8.175
;Generated with Cura_SteamEngine 4.12.1
M82 ;absolute extrusion mode
G21                                        ; metric values 
G90                                        ; absolute positioning 
M82                                        ; set extruder to absolute mode 
M107                                       ; start with the fan off 
M140 S60           ; Start heating the bed 
G4 S60                                     ; wait 1 minute 
M104 S210         ; start heating the hot end 
M190 S60           ; wait for bed 
M109 S210         ; wait for hotend 
M300 S1000 P500                            ; BEEP heating done 
G28 X0 Y10 Z0                              ; move X/Y to min endstops 
M420 S1                                    ; Enable leveling 
M420 Z2.0                                  ; Set leveling fading height to 2 mm 
G0 Z0.15                                   ; lift nozzle a bit 
G92 E0                                     ; zero the extruded length 
G1 X50 E25 F500                            ; Extrude 25mm of filament in a 5cm line. 
G92 E0                                     ; zero the extruded length again 
G1 E-2 F500                                ; Retract a little 
G1 X120 F4000                              ; Quickly wipe away from the filament line`
G92 E0
G92 E0
G1 F1500 E-6
;LAYER_COUNT:40
;LAYER:0
M106 S76.5
M205 X10 Y10
G1 F600 Z0.375
G0 F6000 X85.533 Y92.435 Z0.375
M205 X8 Y8
;TYPE:SKIRT
G1 F600 Z0.3
G1 F1500 E0
G1 F1200 X86.071 Y91.964 E0.03567
G1 X86.659 Y91.556 E0.07138
G1 X87.288 Y91.216 E0.10705
G1 X87.952 Y90.949 E0.14276
G1 X88.641 Y90.757 E0.17844
G1 X89.347 Y90.643 E0.21412
G1 X90.151 Y90.603 E0.25428
G1 X90.33 Y90.6 E0.26321
G1 X119.293 Y90.6 E1.70818
G1 X120.083 Y90.611 E1.7476
G1 X120.796 Y90.661 E1.78326
G1 X121.5 Y90.79 E1.81897
G1 X122.184 Y90.998 E1.85463
G1 X122.841 Y91.28 E1.8903
G1 X123.463 Y91.634 E1.92601
G1 X124.041 Y92.055 E1.96168
G1 X124.569 Y92.538 E1.99738
G1 X125.039 Y93.076 E2.03303
G1 X125.447 Y93.664 E2.06873
G1 X125.786 Y94.294 E2.10442
G1 X126.053 Y94.957 E2.14008
G1 X126.244 Y95.647 E2.1758
G1 X126.357 Y96.353 E2.21147
G1 X126.397 Y97.15 E2.25128
G1 X126.4 Y97.33 E2.26027
G1 X126.4 Y112.343 E3.00927
G1 X126.391 Y113.07 E3.04554
G1 X126.342 Y113.784 E3.08125
G1 X126.214 Y114.488 E3.11694
G1 X126.008 Y115.173 E3.15263
G1 X125.727 Y115.83 E3.18828
G1 X125.374 Y116.453 E3.22401
G1 X124.954 Y117.032 E3.25969
G1 X124.472 Y117.56 E3.29536
G1 X123.935 Y118.032 E3.33103
G1 X123.347 Y118.44 E3.36673
G1 X122.718 Y118.781 E3.40243
G1 X122.055 Y119.049 E3.43811
G1 X121.366 Y119.241 E3.47379
G1 X120.66 Y119.356 E3.50948
G1 X119.849 Y119.397 E3.54999
G1 X119.67 Y119.4 E3.55892
G1 X90.624 Y119.399 E5.00803
G1 X89.926 Y119.39 E5.04286
G1 X89.213 Y119.341 E5.07851
G1 X88.509 Y119.213 E5.11421
G1 X87.824 Y119.007 E5.1499
G1 X87.167 Y118.725 E5.18557
G1 X86.545 Y118.372 E5.22125
G1 X85.966 Y117.952 E5.25694
G1 X85.437 Y117.47 E5.29264
G1 X84.966 Y116.932 E5.32831
G1 X84.558 Y116.345 E5.36398
G1 X84.218 Y115.715 E5.39969
G1 X83.95 Y115.052 E5.43537
G1 X83.758 Y114.363 E5.47106
G1 X83.644 Y113.657 E5.50673
G1 X83.602 Y112.831 E5.548
G1 X83.6 Y112.658 E5.55663
G1 X83.601 Y97.587 E6.30852
G1 X83.61 Y96.922 E6.3417
G1 X83.659 Y96.209 E6.37736
G1 X83.788 Y95.505 E6.41307
G1 X83.995 Y94.821 E6.44872
G1 X84.277 Y94.163 E6.48444
G1 X84.63 Y93.541 E6.52012
G1 X85.05 Y92.963 E6.55576
G1 X85.533 Y92.435 E6.59146
M205 X10 Y10
G0 F6000 X85.924 Y92.614
M205 X8 Y8
G1 F1200 X86.458 Y92.173 E6.62602
G1 X87.039 Y91.796 E6.66057
G1 X87.659 Y91.488 E6.69511
G1 X88.311 Y91.254 E6.72967
G1 X88.985 Y91.097 E6.76419
G1 X89.841 Y91.011 E6.80711
G1 X90.33 Y91 E6.83152
G1 X119.293 Y91 E8.27649
G1 X120.077 Y91.011 E8.31561
G1 X120.768 Y91.06 E8.35017
G1 X121.448 Y91.19 E8.38471
G1 X122.109 Y91.396 E8.41925
G1 X122.742 Y91.678 E8.45382
G1 X123.338 Y92.03 E8.48835
G1 X123.889 Y92.449 E8.52289
G1 X124.389 Y92.929 E8.55747
G1 X124.83 Y93.463 E8.59202
G1 X125.207 Y94.044 E8.62657
G1 X125.514 Y94.665 E8.66113
G1 X125.747 Y95.317 E8.69568
G1 X125.904 Y95.991 E8.7302
G1 X125.989 Y96.841 E8.77282
G1 X126 Y97.33 E8.79722
G1 X126 Y112.338 E9.54598
G1 X125.991 Y113.065 E9.58225
G1 X125.942 Y113.756 E9.61681
G1 X125.814 Y114.437 E9.65138
G1 X125.609 Y115.098 E9.68591
G1 X125.329 Y115.731 E9.72044
G1 X124.977 Y116.328 E9.75502
G1 X124.56 Y116.881 E9.78957
G1 X124.081 Y117.381 E9.82411
G1 X123.548 Y117.823 E9.85866
G1 X122.967 Y118.201 E9.89324
G1 X122.347 Y118.509 E9.92778
G1 X121.696 Y118.744 E9.96231
G1 X121.021 Y118.902 E9.99689
G1 X120.159 Y118.989 E10.04012
G1 X119.67 Y119 E10.06452
G1 X90.63 Y119 E11.51333
G1 X89.932 Y118.991 E11.54816
G1 X89.241 Y118.942 E11.58272
G1 X88.56 Y118.813 E11.6173
G1 X87.899 Y118.608 E11.65183
G1 X87.266 Y118.327 E11.68638
G1 X86.669 Y117.976 E11.72093
G1 X86.117 Y117.558 E11.75547
G1 X85.617 Y117.079 E11.79002
G1 X85.175 Y116.545 E11.8246
G1 X84.798 Y115.965 E11.85911
G1 X84.49 Y115.344 E11.8937
G1 X84.255 Y114.693 E11.92823
G1 X84.098 Y114.018 E11.9628
G1 X84.011 Y113.153 E12.00617
G1 X84 Y112.658 E12.03088
G1 X84.001 Y97.593 E12.78247
G1 X84.01 Y96.928 E12.81565
G1 X84.059 Y96.237 E12.85021
G1 X84.187 Y95.557 E12.88473
G1 X84.394 Y94.895 E12.91934
G1 X84.675 Y94.262 E12.95389
G1 X85.027 Y93.666 E12.98842
G1 X85.445 Y93.114 E13.02297
G1 X85.924 Y92.614 E13.05751
M205 X10 Y10
G0 F6000 X86.314 Y92.801
M205 X8 Y8
G1 F1200 X86.843 Y92.39 E13.09093
G1 X87.416 Y92.045 E13.1243
G1 X88.027 Y91.772 E13.15769
G1 X88.665 Y91.573 E13.19103
G1 X89.323 Y91.451 E13.22442
G1 X89.852 Y91.411 E13.25089
G1 X90.33 Y91.4 E13.27474
G1 X119.293 Y91.4 E14.71971
G1 X120.071 Y91.411 E14.75853
G1 X120.738 Y91.46 E14.7919
G1 X121.395 Y91.589 E14.8253
G1 X122.031 Y91.795 E14.85865
G1 X122.639 Y92.076 E14.89207
G1 X123.208 Y92.426 E14.9254
G1 X123.732 Y92.843 E14.95881
G1 X124.202 Y93.319 E14.99218
G1 X124.612 Y93.847 E15.02553
G1 X124.957 Y94.421 E15.05894
G1 X125.23 Y95.032 E15.09233
G1 X125.428 Y95.671 E15.12571
G1 X125.549 Y96.329 E15.15908
G1 X125.589 Y96.853 E15.1853
G1 X125.6 Y97.33 E15.20911
G1 X125.6 Y112.333 E15.95761
G1 X125.591 Y113.06 E15.99388
G1 X125.542 Y113.728 E16.0273
G1 X125.415 Y114.384 E16.06063
G1 X125.21 Y115.021 E16.09402
G1 X124.931 Y115.629 E16.12739
G1 X124.581 Y116.199 E16.16076
G1 X124.165 Y116.724 E16.19418
G1 X123.69 Y117.195 E16.22756
G1 X123.163 Y117.606 E16.2609
G1 X122.59 Y117.952 E16.29429
G1 X121.98 Y118.226 E16.32765
G1 X121.341 Y118.426 E16.36106
G1 X120.683 Y118.548 E16.39445
G1 X120.148 Y118.589 E16.42122
G1 X119.67 Y118.6 E16.44507
G1 X90.635 Y118.6 E17.89363
G1 X89.937 Y118.591 E17.92846
G1 X89.27 Y118.542 E17.96183
G1 X88.613 Y118.414 E17.99522
G1 X87.976 Y118.209 E18.0286
G1 X87.368 Y117.929 E18.062
G1 X86.798 Y117.579 E18.09537
G1 X86.274 Y117.163 E18.12875
G1 X85.803 Y116.688 E18.16212
G1 X85.392 Y116.16 E18.1955
G1 X85.047 Y115.587 E18.22887
G1 X84.773 Y114.977 E18.26224
G1 X84.573 Y114.338 E18.29564
G1 X84.452 Y113.68 E18.32902
G1 X84.411 Y113.142 E18.35594
G1 X84.4 Y112.658 E18.38009
G1 X84.401 Y97.598 E19.13144
G1 X84.41 Y96.933 E19.16462
G1 X84.459 Y96.266 E19.19798
G1 X84.587 Y95.609 E19.23138
G1 X84.792 Y94.973 E19.26472
G1 X85.072 Y94.365 E19.29811
G1 X85.423 Y93.795 E19.33151
G1 X85.839 Y93.271 E19.36489
G1 X86.314 Y92.801 E19.39822
M205 X10 Y10
G0 F6000 X86.232 Y93.435
M205 X8 Y8
G1 F1200 X86.703 Y92.995 E19.43038
G1 X87.226 Y92.617 E19.46258
G1 X87.79 Y92.306 E19.49471
G1 X88.389 Y92.068 E19.52686
G1 X89.013 Y91.905 E19.55904
G1 X89.863 Y91.811 E19.60171
G1 X90.33 Y91.8 E19.62501
G1 X119.293 Y91.8 E21.06998
G1 X120.065 Y91.811 E21.1085
G1 X120.708 Y91.86 E21.14067
G1 X121.34 Y91.988 E21.17284
G1 X121.951 Y92.194 E21.20501
G1 X122.532 Y92.473 E21.23717
G1 X123.074 Y92.822 E21.26933
G1 X123.568 Y93.236 E21.30148
G1 X124.008 Y93.708 E21.33368
G1 X124.386 Y94.23 E21.36583
G1 X124.696 Y94.795 E21.39798
G1 X124.934 Y95.394 E21.43014
G1 X125.096 Y96.018 E21.4623
G1 X125.189 Y96.864 E21.50477
G1 X125.2 Y97.33 E21.52802
G1 X125.2 Y112.328 E22.27627
G1 X125.191 Y113.055 E22.31255
G1 X125.143 Y113.698 E22.34472
G1 X125.016 Y114.33 E22.37688
G1 X124.811 Y114.942 E22.40908
G1 X124.533 Y115.523 E22.44121
G1 X124.185 Y116.066 E22.47339
G1 X123.772 Y116.561 E22.50555
G1 X123.301 Y117.001 E22.53771
G1 X122.779 Y117.38 E22.56989
G1 X122.215 Y117.691 E22.60202
G1 X121.616 Y117.93 E22.6342
G1 X120.993 Y118.094 E22.66634
G1 X120.137 Y118.189 E22.7093
G1 X119.67 Y118.2 E22.73261
G1 X90.64 Y118.2 E24.18092
G1 X89.942 Y118.191 E24.21575
G1 X89.299 Y118.142 E24.24792
G1 X88.667 Y118.015 E24.28008
G1 X88.056 Y117.81 E24.31223
G1 X87.475 Y117.532 E24.34437
G1 X86.932 Y117.183 E24.37657
G1 X86.437 Y116.77 E24.40873
G1 X85.997 Y116.299 E24.44089
G1 X85.618 Y115.777 E24.47307
G1 X85.307 Y115.213 E24.50521
G1 X85.069 Y114.614 E24.53736
G1 X84.906 Y113.99 E24.56954
G1 X84.811 Y113.131 E24.61266
G1 X84.8 Y112.658 E24.63626
G1 X84.8 Y97.604 E25.38731
G1 X84.809 Y96.939 E25.42049
G1 X84.858 Y96.296 E25.45266
G1 X84.986 Y95.664 E25.48483
G1 X85.191 Y95.053 E25.51698
G1 X85.47 Y94.472 E25.54914
G1 X85.819 Y93.929 E25.58134
G1 X86.232 Y93.435 E25.61347
M205 X10 Y10
G1 F1500 E19.61347
G1 F600 Z0.375
;MESH:sensor_case v2.3mf
G0 F6000 X98.18 Y107.345 Z0.375
M205 X8 Y8
;TYPE:WALL-INNER
G1 F600 Z0.3
G1 F1500 E25.61347
G1 F1200 X99.001 Y107.489 E25.65505
G1 X99.821 Y107.345 E25.69659
G1 X100.542 Y106.928 E25.73814
G1 X101.078 Y106.289 E25.77975
G1 X101.365 Y105.504 E25.82145
G1 X101.357 Y104.658 E25.86366
G1 X101.077 Y103.892 E25.90435
G1 X100.542 Y103.254 E25.94589
G1 X99.82 Y102.836 E25.98751
G1 X99.001 Y102.693 E26.02899
G1 X98.181 Y102.836 E26.07052
G1 X97.459 Y103.254 E26.11214
G1 X96.923 Y103.891 E26.15367
G1 X96.639 Y104.675 E26.19527
G1 X96.639 Y105.506 E26.23673
G1 X96.923 Y106.29 E26.27833
G1 X97.459 Y106.928 E26.31991
G1 X98.18 Y107.345 E26.36146
M205 X10 Y10
G0 F6000 X98.319 Y106.963
M205 X8 Y8
G1 F1200 X99.001 Y107.083 E26.39601
G1 X99.682 Y106.963 E26.43051
G1 X100.281 Y106.617 E26.46502
G1 X100.726 Y106.086 E26.49958
G1 X100.964 Y105.435 E26.53416
G1 X100.958 Y104.731 E26.56929
G1 X100.725 Y104.095 E26.60308
G1 X100.281 Y103.565 E26.63757
G1 X99.681 Y103.218 E26.67215
G1 X99.001 Y103.099 E26.70659
G1 X98.32 Y103.218 E26.74108
G1 X97.72 Y103.565 E26.77566
G1 X97.275 Y104.094 E26.81015
G1 X97.039 Y104.745 E26.8447
G1 X97.039 Y105.436 E26.87917
G1 X97.275 Y106.087 E26.91372
G1 X97.72 Y106.617 E26.94825
G1 X98.319 Y106.963 E26.98276
M205 X10 Y10
G0 F6000 X98.458 Y106.581
M205 X8 Y8
;TYPE:WALL-OUTER
G1 F1200 X99.001 Y106.677 E27.01027
G1 X99.543 Y106.581 E27.03773
G1 X100.02 Y106.306 E27.0652
G1 X100.374 Y105.883 E27.09272
G1 X100.563 Y105.366 E27.12018
G1 X100.559 Y104.803 E27.14827
G1 X100.374 Y104.298 E27.1751
G1 X100.02 Y103.876 E27.20258
G1 X99.542 Y103.6 E27.23012
G1 X99.001 Y103.505 E27.25752
G1 X98.459 Y103.6 E27.28497
G1 X97.981 Y103.876 E27.31251
G1 X97.627 Y104.297 E27.33995
G1 X97.439 Y104.815 E27.36745
G1 X97.439 Y105.366 E27.39494
G1 X97.627 Y105.884 E27.42243
G1 X97.981 Y106.306 E27.44991
G1 X98.458 Y106.581 E27.47738
M205 X10 Y10
G0 F6000 X98.655 Y106.615
G0 X98.578 Y107.048
G1 F1500 E21.47738
G1 F600 Z0.375
G0 F6000 X110.18 Y107.345 Z0.375
M205 X8 Y8
;TYPE:WALL-INNER
G1 F600 Z0.3
G1 F1500 E27.47738
G1 F1200 X111.001 Y107.489 E27.51896
G1 X111.821 Y107.345 E27.5605
G1 X112.542 Y106.928 E27.60205
G1 X113.078 Y106.289 E27.64366
G1 X113.365 Y105.504 E27.68536
G1 X113.357 Y104.658 E27.72757
G1 X113.077 Y103.892 E27.76826
G1 X112.542 Y103.254 E27.8098
G1 X111.82 Y102.836 E27.85142
G1 X111.001 Y102.693 E27.8929
G1 X110.181 Y102.836 E27.93443
G1 X109.459 Y103.254 E27.97605
G1 X108.923 Y103.891 E28.01758
G1 X108.639 Y104.675 E28.05918
G1 X108.639 Y105.506 E28.10064
G1 X108.923 Y106.29 E28.14224
G1 X109.459 Y106.928 E28.18382
G1 X110.18 Y107.345 E28.22537
M205 X10 Y10
G0 F6000 X110.319 Y106.963
M205 X8 Y8
G1 F1200 X111.001 Y107.083 E28.25992
G1 X111.682 Y106.963 E28.29442
G1 X112.281 Y106.617 E28.32893
G1 X112.726 Y106.086 E28.36349
G1 X112.964 Y105.435 E28.39807
G1 X112.958 Y104.731 E28.4332
G1 X112.725 Y104.095 E28.46699
G1 X112.281 Y103.565 E28.50148
G1 X111.681 Y103.218 E28.53606
G1 X111.001 Y103.099 E28.57051
G1 X110.32 Y103.218 E28.605
G1 X109.72 Y103.565 E28.63957
G1 X109.275 Y104.094 E28.67406
G1 X109.039 Y104.745 E28.70861
G1 X109.039 Y105.436 E28.74308
G1 X109.275 Y106.087 E28.77763
G1 X109.72 Y106.617 E28.81216
G1 X110.319 Y106.963 E28.84667
M205 X10 Y10
G0 F6000 X110.458 Y106.581
M205 X8 Y8
;TYPE:WALL-OUTER
G1 F1200 X111.001 Y106.677 E28.87418
G1 X111.543 Y106.581 E28.90164
G1 X112.02 Y106.306 E28.92911
G1 X112.374 Y105.883 E28.95663
G1 X112.563 Y105.366 E28.98409
G1 X112.559 Y104.803 E29.01218
G1 X112.374 Y104.298 E29.03901
G1 X112.02 Y103.876 E29.06649
G1 X111.542 Y103.6 E29.09403
G1 X111.001 Y103.505 E29.12143
G1 X110.459 Y103.6 E29.14889
G1 X109.981 Y103.876 E29.17642
G1 X109.627 Y104.297 E29.20387
G1 X109.439 Y104.815 E29.23136
G1 X109.439 Y105.366 E29.25885
G1 X109.627 Y105.884 E29.28634
G1 X109.981 Y106.306 E29.31382
G1 X110.458 Y106.581 E29.34129
M205 X10 Y10
G0 F6000 X110.655 Y106.615
G0 X110.578 Y107.048
G1 F1500 E23.34129
G1 F600 Z0.375
G0 F6000 X119 Y112 Z0.375
M205 X8 Y8
;TYPE:WALL-INNER
G1 F600 Z0.3
G1 F1500 E29.34129
G1 F1200 X91 Y112 E30.73822
G1 X91 Y98 E31.43668
G1 X119 Y98 E32.8336
G1 X119 Y112 E33.53207
M205 X10 Y10
G0 F6000 X119.4 Y112.4
M205 X8 Y8
G1 F1200 X90.6 Y112.4 E34.9689
G1 X90.6 Y97.6 E35.70728
G1 X119.4 Y97.6 E37.14412
G1 X119.4 Y112.4 E37.88249
M205 X10 Y10
G0 F6000 X119.8 Y112.8
M205 X8 Y8
;TYPE:WALL-OUTER
G1 F1200 X90.2 Y112.8 E39.35924
G1 X90.2 Y97.2 E40.13753
G1 X119.8 Y97.2 E41.61428
G1 X119.8 Y112.8 E42.39257
M205 X10 Y10
G0 F6000 X119.6 Y112.8
G0 X119.36 Y112.36
G0 X118.61 Y111.61
M205 X8 Y8
;TYPE:SKIN
G1 F1200 X91.39 Y111.61 E43.75058
G1 X91.39 Y98.39 E44.41013
G1 X118.61 Y98.39 E45.76814
G1 X118.61 Y111.61 E46.42769
M205 X10 Y10
G1 F1500 E40.42769
G1 F600 Z0.375
G0 F6000 X112.797 Y107.232 Z0.375
M205 X8 Y8
G1 F600 Z0.3
G1 F1500 E46.42769
G1 F1200 X113.421 Y106.487 E46.47617
G1 X113.755 Y105.571 E46.52481
G1 X113.747 Y104.588 E46.57386
G1 X113.42 Y103.693 E46.62139
G1 X112.797 Y102.951 E46.66973
G1 X111.955 Y102.464 E46.71826
G1 X111.001 Y102.297 E46.76658
G1 X110.046 Y102.464 E46.81495
G1 X109.205 Y102.95 E46.86341
G1 X108.58 Y103.692 E46.91181
G1 X108.249 Y104.607 E46.96035
G1 X108.249 Y105.574 E47.0086
G1 X108.58 Y106.487 E47.05705
G1 X109.204 Y107.232 E47.10553
G1 X110.045 Y107.717 E47.15396
G1 X111.001 Y107.885 E47.20239
G1 X111.956 Y107.717 E47.25077
G1 X112.797 Y107.232 E47.2992
M205 X10 Y10
G1 F1500 E41.2992
G1 F600 Z0.375
G0 F6000 X101.755 Y105.571 Z0.375
M205 X8 Y8
G1 F600 Z0.3
G1 F1500 E47.2992
G1 F1200 X101.747 Y104.588 E47.34825
G1 X101.42 Y103.693 E47.39578
G1 X100.797 Y102.951 E47.44412
G1 X99.955 Y102.464 E47.49265
G1 X99.001 Y102.297 E47.54097
G1 X98.046 Y102.464 E47.58934
G1 X97.205 Y102.95 E47.6378
G1 X96.58 Y103.692 E47.6862
G1 X96.249 Y104.607 E47.73474
G1 X96.249 Y105.574 E47.78299
G1 X96.58 Y106.487 E47.83144
G1 X97.204 Y107.232 E47.87992
G1 X98.045 Y107.717 E47.92835
G1 X99.001 Y107.885 E47.97678
G1 X99.956 Y107.717 E48.02516
G1 X100.797 Y107.232 E48.07359
G1 X101.421 Y106.487 E48.12208
G1 X101.755 Y105.571 E48.17072
M205 X10 Y10
G1 F1500 E42.17072
G1 F600 Z0.375
G0 F6000 X91.63 Y111.429 Z0.375
M205 X8 Y8
G1 F600 Z0.3
G1 F1500 E48.17072
G1 F1200 X91.569 Y111.368 E48.17502
M205 X10 Y10
G0 F6000 X91.569 Y110.802
M205 X8 Y8
G1 F1200 X92.196 Y111.429 E48.21926
M205 X10 Y10
G0 F6000 X92.761 Y111.429
M205 X8 Y8
G1 F1200 X91.569 Y110.237 E48.30336
M205 X10 Y10
G0 F6000 X91.569 Y109.671
M205 X8 Y8
G1 F1200 X93.327 Y111.429 E48.4274
M205 X10 Y10
G0 F6000 X93.893 Y111.429
M205 X8 Y8
G1 F1200 X91.569 Y109.105 E48.59137
M205 X10 Y10
G0 F6000 X91.569 Y108.54
M205 X8 Y8
G1 F1200 X94.458 Y111.429 E48.7952
M205 X10 Y10
G0 F6000 X95.024 Y111.429
M205 X8 Y8
G1 F1200 X91.569 Y107.974 E49.03897
M205 X10 Y10
G0 F6000 X91.569 Y107.408
M205 X8 Y8
